templates/main/source/images/Otkr_logo_bank.svg

<?xml version="1.0" encoding="utf-8"?>
<svg width="240px" height="38px" viewBox="0 0 240 38" version="1.1" xmlns:xlink="http://www.w3.org/1999/xlink" xmlns="http://www.w3.org/2000/svg">
  <desc>Created with Lunacy</desc>
  <g id="Otkr_logo_bank">
    <path d="M0 0L0.857147 0L0.857147 37.1143L0 37.1143L0 0Z" transform="translate(201.9414 0.34277344)" id="Rectangle" fill="#000000" stroke="none" />
    <g id="Group" transform="translate(214.28516 14.571289)">
      <path d="M0 8.57143L2.91429 8.57143C4.62857 8.57143 5.65714 7.71429 5.74286 6.08571L5.74286 6C5.74286 4.28571 4.62857 3.6 2.91429 3.6L1.02857 3.6L1.02857 0.857143L5.05714 0.857143L5.05714 0L0 0L0 8.57143ZM4.62857 6.17143C4.62857 7.2 4.11429 7.8 2.82857 7.8L0.942857 7.8L0.942857 4.45714L2.74286 4.45714C4.02857 4.45714 4.62857 5.05714 4.62857 6.08571L4.62857 6.17143Z" id="Shape" fill="#000000" fill-rule="evenodd" stroke="none" />
      <path d="M3.17143 2.74286C1.54286 2.74286 0 3.25714 0 4.71429C0 6 0.857143 6.6 2.05714 6.6C3 6.6 3.6 6.25714 4.02857 5.65714L4.02857 6.42857L5.05714 6.42857L5.05714 2.22857C5.05714 0.514286 3.94286 0 2.74286 0C1.54286 0 0.428571 0.514286 0.257143 1.97143L1.28571 1.97143C1.37143 1.2 1.88571 0.857143 2.74286 0.857143C3.77143 0.857143 4.11429 1.28571 4.11429 2.31429L4.11429 2.74286L3.17143 2.74286ZM4.02857 3.51429L4.02857 4.28571C4.02857 5.22857 3.17143 5.74286 2.22857 5.74286C1.37143 5.74286 1.02857 5.4 1.02857 4.71429C1.02857 3.85714 1.88571 3.51429 3.17143 3.51429L4.02857 3.51429Z" transform="translate(6.6857142 2.142857)" id="Shape" fill="#000000" fill-rule="evenodd" stroke="none" />
      <path d="M4.11429 3.51429L1.02857 3.51429L1.02857 6.25714L0 6.25714L0 0L1.02857 0L1.02857 2.65714L4.11429 2.65714L4.11429 0L5.14286 0L5.14286 6.25714L4.11429 6.25714L4.11429 3.51429Z" transform="translate(13.3714285 2.3142858)" id="Path" fill="#000000" stroke="none" />
      <path d="M1.02857 3.08571L1.02857 6.25714L0 6.25714L0 0L1.02857 0L1.02857 2.91429L3.6 0L4.8 0L2.14286 2.91429L5.05714 6.25714L3.85714 6.25714L1.02857 3.08571Z" transform="translate(20.142857 2.3142858)" id="Path" fill="#000000" stroke="none" />
    </g>
    <g id="Group">
      <path d="M18.6 0C8.31429 0 0 8.31429 0 18.6C0 28.8857 8.31429 37.2 18.6 37.2C28.8857 37.2 37.2 28.8857 37.2 18.6C37.2 8.31429 28.8857 0 18.6 0ZM16.0286 26.4857L14.6571 30.5143C9.51429 28.8 6.08571 23.9143 6.08571 18.4286C6.08571 12.9429 9.51429 8.14286 14.7429 6.34286L16.1143 10.3714C12.6857 11.4857 10.4571 14.7429 10.4571 18.3429C10.2857 22.1143 12.6 25.3714 16.0286 26.4857ZM21.0857 26.4857L22.3714 30.6C27.6857 28.9714 31.2857 24.0857 31.2857 18.4286C31.2857 12.9429 27.7714 8.05714 22.5429 6.34286L21.1714 10.4571C24.6 11.5714 26.9143 14.7429 26.9143 18.4286C26.9143 22.1143 24.6 25.3714 21.0857 26.4857Z" transform="translate(3.0451832E-15 0.42857143)" id="Shape" fill="#00BEF0" fill-rule="evenodd" stroke="none" />
      <path d="M69.8571 8.57143C69.8571 3.6 66.4286 0 61.8 0C59.5714 0 57.7714 0.771429 56.4 2.4L56.4 0.428571L52.8857 0.428571L52.8857 23.6571L56.4857 23.6571L56.4857 15.0857C57.7714 16.4571 59.5714 17.2286 61.8 17.2286C66.5143 17.2286 69.8571 13.4571 69.8571 8.57143ZM8.82857 0.0857143C3.77143 0.0857143 0 3.77143 0 8.65714C0 13.5429 3.85714 17.2286 8.82857 17.3143C13.8857 17.3143 17.6571 13.5429 17.6571 8.65714C17.6571 3.77143 13.8 0.0857143 8.82857 0.0857143ZM144.6 14.4857L142.543 12C141.086 13.4571 139.457 13.9714 137.829 13.9714C136.371 13.9714 135.257 13.7143 134.314 13.1143C133.2 12.4286 132.429 11.1429 132.343 9.77143L145.2 9.77143C145.629 4.28571 142.886 0.0857143 137.229 0.0857143C132.171 0.0857143 128.743 3.85714 128.743 8.91429C128.743 12.2571 130.114 15 132.857 16.3714C134.143 16.9714 135.6 17.3143 137.657 17.3143C139.8 17.3143 142.457 16.7143 144.6 14.4857ZM50.7429 16.8L46.1143 16.8L40.6286 10.2L39 10.2L39 16.7143L35.4857 16.7143L35.4857 0.342857L39 0.342857L39 6.68571L40.6286 6.68571L46.1143 0.342857L50.6571 0.342857L43.4571 8.31429L50.7429 16.8ZM18.2571 0.428571L33 0.428571L33 3.68571L27.4286 3.68571L27.4286 16.8L23.8286 16.8L23.8286 3.68571L18.2571 3.68571L18.2571 0.428571ZM79.9714 16.8C83.4 16.8 85.8 14.4857 85.8 11.2286C85.8 7.97143 83.7429 5.74286 80.3143 5.74286L76.2857 5.74286L76.2857 0.428571L72.7714 0.428571L72.7714 16.8L79.9714 16.8ZM87.8571 16.8L91.3714 16.8L91.3714 0.428571L87.8571 0.428571L87.8571 16.8ZM108.6 0.428571L93.8571 0.428571L93.8571 3.68571L99.4286 3.68571L99.4286 16.8L103.029 16.8L103.029 3.68571L108.6 3.68571L108.6 0.428571ZM125.914 0.428571L125.914 16.8L122.4 16.8L122.4 6.25714L113.829 16.8L111 16.8L111 0.428571L114.514 0.428571L114.514 10.9714L123.086 0.428571L125.914 0.428571ZM132.429 6.77143L141.514 6.77143C141.257 4.8 139.629 3.08571 137.057 3.08571C134.4 3.08571 132.771 4.97143 132.429 6.77143ZM13.9714 8.65714C13.9714 5.57143 11.8286 3.34286 8.82857 3.34286C5.91429 3.34286 3.68571 5.57143 3.68571 8.65714C3.68571 11.7429 5.82857 13.9714 8.82857 13.9714C11.7429 13.9714 13.9714 11.7429 13.9714 8.65714ZM61.2 3.34286C58.2 3.34286 56.2286 5.65714 56.2286 8.57143C56.2286 11.4857 58.2 13.8 61.2 13.8C64.2 13.8 66.0857 11.5714 66.0857 8.57143C66.1714 5.74286 64.2857 3.34286 61.2 3.34286ZM82.2857 11.2286C82.2857 9.77143 81.2571 8.74286 79.8857 8.74286L76.2857 8.74286L76.2857 13.8L79.8857 13.8C81.2571 13.8 82.2857 12.6857 82.2857 11.2286Z" transform="translate(46.37143 10.3714285)" id="Shape" fill="#000000" fill-rule="evenodd" stroke="none" />
    </g>
  </g>
</svg>

<svg width="240" height="38" viewBox="0 0 240 38" xmlns:xlink="http://www.w3.org/1999/xlink" xmlns="http://www.w3.org/2000/svg"><g id="Otkr_logo_bank" stroke="none"><path d="M0 0h.857v37.114H0V0z" transform="translate(201.941 .343)" id="Rectangle" fill="#000"/><g id="Group" transform="translate(214.285 14.571)" fill="#000"><path d="M0 8.571h2.914c1.715 0 2.743-.857 2.829-2.485V6c0-1.714-1.114-2.4-2.829-2.4H1.03V.857h4.028V0H0v8.571zm4.629-2.4c0 1.029-.515 1.629-1.8 1.629H.943V4.457h1.8c1.286 0 1.886.6 1.886 1.629v.085z" id="Shape" fill-rule="evenodd"/><path d="M3.171 2.743C1.543 2.743 0 3.257 0 4.714 0 6 .857 6.6 2.057 6.6 3 6.6 3.6 6.257 4.03 5.657v.772h1.028v-4.2C5.057.514 3.943 0 2.743 0S.429.514.257 1.971h1.029C1.37 1.2 1.886.857 2.743.857c1.028 0 1.371.429 1.371 1.457v.429h-.943zm.858.771v.772c0 .943-.858 1.457-1.8 1.457-.858 0-1.2-.343-1.2-1.029 0-.857.857-1.2 2.142-1.2h.858z" transform="translate(6.686 2.143)" id="Shape" fill-rule="evenodd"/><path d="M4.114 3.514H1.03v2.743H0V0h1.029v2.657h3.085V0h1.029v6.257H4.114V3.514z" transform="translate(13.371 2.314)" id="Path"/><path d="M1.029 3.086v3.171H0V0h1.029v2.914L3.6 0h1.2L2.143 2.914l2.914 3.343h-1.2L1.03 3.086z" transform="translate(20.143 2.314)" id="Path"/></g><g id="Group" fill-rule="evenodd"><path d="M18.6 0C8.314 0 0 8.314 0 18.6c0 10.286 8.314 18.6 18.6 18.6 10.286 0 18.6-8.314 18.6-18.6C37.2 8.314 28.886 0 18.6 0zm-2.571 26.486l-1.372 4.028c-5.143-1.714-8.571-6.6-8.571-12.085 0-5.486 3.428-10.286 8.657-12.086l1.371 4.028c-3.428 1.115-5.657 4.372-5.657 7.972-.171 3.771 2.143 7.028 5.572 8.143zm5.057 0L22.37 30.6c5.315-1.629 8.915-6.514 8.915-12.171a12.713 12.713 0 00-8.743-12.086l-1.372 4.114c3.429 1.114 5.743 4.286 5.743 7.972 0 3.685-2.314 6.942-5.828 8.057z" transform="translate(0 .429)" id="Shape" fill="#00BEF0"/><path d="M69.857 8.571C69.857 3.6 66.43 0 61.8 0c-2.229 0-4.029.771-5.4 2.4V.429h-3.514v23.228h3.6v-8.571c1.285 1.371 3.085 2.143 5.314 2.143 4.714 0 8.057-3.772 8.057-8.658zM8.83.086C3.77.086 0 3.77 0 8.657c0 4.886 3.857 8.572 8.829 8.657 5.057 0 8.828-3.771 8.828-8.657S13.8.086 8.83.086zm135.771 14.4L142.543 12c-1.457 1.457-3.086 1.971-4.714 1.971-1.458 0-2.572-.257-3.515-.857-1.114-.685-1.885-1.971-1.971-3.343H145.2c.429-5.485-2.314-9.685-7.971-9.685-5.058 0-8.486 3.771-8.486 8.828 0 3.343 1.371 6.086 4.114 7.457 1.286.6 2.743.943 4.8.943 2.143 0 4.8-.6 6.943-2.828zM50.743 16.8h-4.629l-5.485-6.6H39v6.514h-3.514V.343H39v6.343h1.629L46.114.343h4.543l-7.2 7.971 7.286 8.486zM18.257.429H33v3.257h-5.571V16.8h-3.6V3.686h-5.572V.429zM79.971 16.8c3.429 0 5.829-2.314 5.829-5.571 0-3.258-2.057-5.486-5.486-5.486h-4.028V.429H72.77V16.8h7.2zm7.886 0h3.514V.429h-3.514V16.8zM108.6.429H93.857v3.257h5.572V16.8h3.6V3.686h5.571V.429zm17.314 0V16.8H122.4V6.257L113.829 16.8H111V.429h3.514V10.97L123.086.43h2.828zm6.515 6.342h9.085c-.257-1.971-1.885-3.685-4.457-3.685-2.657 0-4.286 1.885-4.628 3.685zM13.971 8.657c0-3.086-2.142-5.314-5.142-5.314-2.915 0-5.143 2.228-5.143 5.314s2.143 5.314 5.143 5.314c2.914 0 5.142-2.228 5.142-5.314zM61.2 3.343c-3 0-4.971 2.314-4.971 5.228 0 2.915 1.971 5.229 4.971 5.229s4.886-2.229 4.886-5.229c.085-2.828-1.8-5.228-4.886-5.228zm21.086 7.886c0-1.458-1.029-2.486-2.4-2.486h-3.6V13.8h3.6c1.371 0 2.4-1.114 2.4-2.571z" transform="translate(46.371 10.371)" id="Shape" fill="#000"/></g></g></svg>
